X:395
T: GUTER MOND DU GEHST SO STILLE
N: B0468
O: Europa, Mitteleuropa, Deutschland
R: Liebes - Lied, Leid, Klage
M: 4/4
L: 1/8
K: G
dc | B2B2Bcde | dcA2z2
dc | B2B2AGAB | G4z2
dc | B2B2Bcde | dcA2z2
dc | B2B2AGAB | G4z2
AB | c2A2z2Bc | d2B2z2
dd | e3dedcB | B2A2z2
dc | B2B2Bcde | dcA2z2
dc | B2B2AGAB | G4z2

